icons/phone-classic.svg

<svg width="24" height="24" viewBox="0 0 24 24" fill="none" xmlns="http://www.w3.org/2000/svg">
<path fill-rule="evenodd" clip-rule="evenodd" d="M7 1.75C7.41421 1.75 7.75 2.08579 7.75 2.5V5.63584C8.61978 5.07365 9.66483 4.75 10.8 4.75H13.2C16.3142 4.75 18.75 7.18577 18.75 10.3V15.5C18.75 19.2142 15.7142 22.25 12 22.25C8.28579 22.25 5.25 19.2142 5.25 15.5V10.3C5.25 9.09004 5.61769 7.9825 6.25 7.08043V2.5C6.25 2.08579 6.58579 1.75 7 1.75ZM10.8 6.25C8.51423 6.25 6.75 8.01421 6.75 10.3V15.5C6.75 18.3858 9.11421 20.75 12 20.75C14.8858 20.75 17.25 18.3858 17.25 15.5V10.3C17.25 8.0142 15.4858 6.25 13.2 6.25H10.8ZM9.44995 10.7C9.44995 9.91423 10.1142 9.25 10.9 9.25H13.0999C13.8857 9.25 14.55 9.91423 14.55 10.7V11.3C14.55 12.0858 13.8857 12.75 13.0999 12.75H10.9C10.1142 12.75 9.44995 12.0858 9.44995 11.3V10.7ZM10.9 7.75C9.28575 7.75 7.94995 9.0858 7.94995 10.7V11.3C7.94995 12.9142 9.28575 14.25 10.9 14.25H13.0999C14.7142 14.25 16.05 12.9142 16.05 11.3V10.7C16.05 9.0858 14.7142 7.75 13.0999 7.75H10.9Z" fill="black"/>
</svg>

<svg xmlns="http://www.w3.org/2000/svg" fill="none" viewBox="0 0 24 24">
  <path fill="#000" fill-rule="evenodd" d="M7 1.75a.75.75 0 0 1 .75.75v3.136a5.59 5.59 0 0 1 3.05-.886h2.4c3.114 0 5.55 2.436 5.55 5.55v5.2c0 3.714-3.036 6.75-6.75 6.75s-6.75-3.036-6.75-6.75v-5.2a5.58 5.58 0 0 1 1-3.22V2.5A.75.75 0 0 1 7 1.75Zm3.8 4.5c-2.286 0-4.05 1.764-4.05 4.05v5.2c0 2.886 2.364 5.25 5.25 5.25s5.25-2.364 5.25-5.25v-5.2c0-2.286-1.764-4.05-4.05-4.05h-2.4ZM9.45 10.7c0-.786.664-1.45 1.45-1.45h2.2c.786 0 1.45.664 1.45 1.45v.6a1.47 1.47 0 0 1-1.45 1.45h-2.2a1.47 1.47 0 0 1-1.45-1.45v-.6Zm1.45-2.95a2.97 2.97 0 0 0-2.95 2.95v.6a2.97 2.97 0 0 0 2.95 2.95h2.2a2.97 2.97 0 0 0 2.95-2.95v-.6a2.97 2.97 0 0 0-2.95-2.95h-2.2Z" clip-rule="evenodd"/>
</svg>
